public/box4.svg

<svg width="365" height="294" viewBox="0 0 365 294" fill="none" xmlns="http://www.w3.org/2000/svg">
<rect y="0.154297" width="365" height="293" rx="18" fill="url(#paint0_linear_2023_3393)"/>
<path d="M325.283 83.8659C323.353 83.8659 321.717 83.3007 320.419 82.1844C319.841 81.6883 319.32 81.1543 318.865 80.5911C316.052 82.5606 311.856 83.5962 306.642 83.5962C305.917 83.5962 305.165 83.5772 304.384 83.5359C299.938 83.3041 296.884 80.9164 295.914 76.9523C293.584 76.5721 291.157 75.4057 288.852 73.5535C285.265 70.6697 284.112 66.44 285.693 61.9507C287.338 57.2804 291.604 53.6207 295.407 53.6207C296.022 53.6207 296.611 53.7108 297.173 53.8904C297.221 52.0985 297.601 49.0954 299.442 47.0703C301.569 44.724 305.001 44.354 309.519 46.0524C311.233 46.6949 312.728 47.5055 313.972 48.4644C316.118 46.3614 318.796 45.1693 321.433 45.1693C323.408 45.1693 325.328 45.807 327.14 47.0615C331.189 49.8674 333.565 54.0456 333.624 58.3858C336.024 58.5464 338.263 59.7474 340.131 61.8829C342.646 64.7612 343.044 68.5234 341.25 72.4732C338.496 78.5423 331.035 83.8659 325.283 83.8659ZM320.224 79.4586C320.617 79.9479 321.069 80.4108 321.573 80.8446C322.539 81.6755 323.788 82.097 325.283 82.097C330.337 82.097 337.179 77.1604 339.64 71.7419C340.694 69.4213 341.402 66.0293 338.798 63.0486C337.231 61.2553 335.456 60.2821 333.519 60.1527C332.959 64.2997 330.243 67.3461 326.699 67.6809C326.52 67.6979 326.35 67.7053 326.191 67.7053C326.191 67.7053 326.191 67.7053 326.189 67.7053C324.349 67.7053 323.668 66.6115 323.645 65.5888C323.59 63.1747 327.322 59.0954 331.855 58.4543C331.817 54.6718 329.717 51.0019 326.13 48.5173C324.62 47.4702 323.039 46.9395 321.432 46.9395C319.294 46.9395 317.096 47.9155 315.298 49.6417C318.109 52.522 318.565 55.9724 317.71 58.2448C317.103 59.8497 315.858 60.8487 314.455 60.8487C314.455 60.8487 314.455 60.8487 314.453 60.8487C313.568 60.8487 312.671 60.4549 311.858 59.7101C309.298 57.3638 310.297 52.9992 312.791 49.7901C311.706 48.9714 310.399 48.2733 308.896 47.7081C305.12 46.291 302.384 46.4604 300.751 48.2591C298.558 50.6745 298.964 55.176 298.969 55.2208C299.002 55.5596 298.836 55.8877 298.544 56.0639C298.252 56.2401 297.883 56.2333 297.601 56.0429C296.944 55.6091 296.207 55.3895 295.406 55.3895C292.358 55.3895 288.749 58.5966 287.361 62.5396C286.587 64.7355 285.896 68.9083 289.959 72.1743C291.833 73.6796 293.77 74.6765 295.623 75.0947C295.404 72.0916 296.269 68.8067 297.854 66.9097C298.636 65.9717 299.535 65.4756 300.452 65.4756C301.113 65.4756 302.095 65.7419 303.018 67.0134C304.606 69.1991 304.92 71.622 303.882 73.6585C302.816 75.7494 300.547 77.0208 297.784 77.0865C298.486 79.2946 300.245 81.548 304.475 81.769C310.447 82.0679 315 81.1489 317.864 79.1306C316.1 76.0259 316.332 72.6853 317.418 70.6345C318.063 69.4166 318.979 68.7185 319.927 68.7185C320.581 68.7185 321.767 69.0554 322.369 71.3068C323.185 74.358 322.402 77.2865 320.224 79.4586ZM319.929 70.4888C319.763 70.4888 319.361 70.7531 318.984 71.4634C318.165 73.0079 317.984 75.5155 319.231 77.9398C320.772 76.2448 321.281 74.0869 320.66 71.7643C320.382 70.724 320.032 70.4888 319.929 70.4888ZM297.42 75.3183C299.674 75.3895 301.504 74.4318 302.309 72.8561C303.033 71.4322 302.772 69.6823 301.59 68.0544C301.322 67.6843 300.907 67.2458 300.455 67.2458C300.085 67.2458 299.644 67.5291 299.214 68.0442C298.053 69.4349 297.092 72.3756 297.42 75.3183ZM331.712 60.2699C328.077 60.9659 325.385 64.2421 325.414 65.5467C325.418 65.6918 325.424 65.9358 326.19 65.9358C326.192 65.9358 326.192 65.9358 326.192 65.9358C326.299 65.9358 326.413 65.9303 326.535 65.9188C329.139 65.6735 331.168 63.4078 331.712 60.2699ZM314.117 50.9639C311.978 53.744 311.475 56.9578 313.054 58.4041C314.264 59.5115 315.48 59.1388 316.054 57.6213C316.7 55.9073 316.312 53.2669 314.117 50.9639Z" fill="white"/>
<path d="M309.581 203.708C308.93 203.708 308.313 203.708 306.61 196.924C300.864 195.818 300.377 195.164 300.189 194.913C300.025 194.692 299.956 194.289 300.03 194.025C300.133 193.655 300.377 192.798 306.943 190.151C309.304 184 310.107 184 310.642 184C310.92 184 311.304 184.199 311.47 184.424C311.895 184.992 312.277 186.466 312.857 188.823C313.039 189.557 313.256 190.443 313.382 190.838C313.728 190.992 314.483 191.263 315.11 191.488C318.495 192.701 319.368 193.113 319.525 193.925C319.586 194.231 319.43 194.675 319.197 194.884C318.511 195.5 315.252 196.711 313.538 197.321C310.756 203.65 310.158 203.679 309.63 203.707C309.616 203.708 309.596 203.708 309.581 203.708ZM302.449 194.15C303.6 194.48 305.68 194.952 307.495 195.291C307.835 195.353 308.108 195.611 308.191 195.948C308.656 197.829 309.262 199.972 309.699 201.206C310.337 200.057 311.294 198.04 312.071 196.259C312.17 196.035 312.357 195.86 312.588 195.778C314.138 195.234 315.886 194.564 316.985 194.085C316.218 193.761 315.184 193.392 314.514 193.151C312.584 192.46 312.221 192.31 311.973 191.975C311.753 191.681 311.62 191.196 311.14 189.245C310.96 188.519 310.687 187.408 310.444 186.57C309.872 187.665 309.079 189.509 308.46 191.14C308.372 191.373 308.19 191.556 307.96 191.65C305.946 192.454 303.66 193.477 302.449 194.15Z" fill="white"/>
<path d="M60.5687 92.6587C60.5667 92.6587 60.5654 92.6587 60.5633 92.6587C60.0747 92.6553 59.6802 92.2582 59.6836 91.7688L59.7717 76.8797C59.7751 76.3924 60.1709 76 60.6562 76C60.6582 76 60.6595 76 60.6616 76C61.1509 76.0034 61.5447 76.4005 61.5413 76.8899L61.4532 91.779C61.4498 92.267 61.054 92.6587 60.5687 92.6587Z" fill="white"/>
<path d="M54.5649 89.4115C54.2871 89.4115 54.0119 89.28 53.8391 89.0333C53.5592 88.6327 53.6575 88.0811 54.0587 87.8012L66.3541 79.2292C66.7499 78.9527 67.3043 79.0442 67.5863 79.4488C67.8662 79.8493 67.7679 80.401 67.3667 80.6809L55.0712 89.2529C54.9174 89.36 54.7412 89.4115 54.5649 89.4115Z" fill="white"/>
<path d="M65.3644 90.035C65.1292 90.035 64.896 89.9415 64.7218 89.7585L55.4254 79.9341C55.0899 79.5783 55.1055 79.0185 55.4599 78.683C55.8158 78.3462 56.3756 78.3651 56.711 78.7175L66.0069 88.5427C66.3423 88.8985 66.3267 89.4583 65.9723 89.7938C65.8015 89.9557 65.5819 90.035 65.3644 90.035Z" fill="white"/>
<path d="M52.8845 85.0562C52.3992 85.0562 52.0048 84.6658 52.0001 84.1799C51.9946 83.6905 52.387 83.292 52.8764 83.2866L67.1989 83.1504C67.6652 83.1728 68.0868 83.5394 68.0922 84.0267C68.0976 84.516 67.7052 84.9145 67.2159 84.92L52.8933 85.0562C52.8899 85.0562 52.8879 85.0562 52.8845 85.0562Z" fill="white"/>
<defs>
<linearGradient id="paint0_linear_2023_3393" x1="182.5" y1="-6.3787" x2="182.5" y2="306.017" gradientUnits="userSpaceOnUse">
<stop stop-color="#6D13FF"/>
<stop offset="0.0490798" stop-color="#9859FF"/>
<stop offset="0.898447" stop-color="#9859FF"/>
<stop offset="1" stop-color="#6D13FF"/>
</linearGradient>
</defs>
</svg>

<svg width="365" height="294" fill="none" xmlns="http://www.w3.org/2000/svg"><rect y=".154" width="365" height="293" rx="18" fill="url(#a)"/><path d="M325.283 83.866c-1.93 0-3.566-.565-4.864-1.682a12.263 12.263 0 0 1-1.554-1.593c-2.813 1.97-7.009 3.005-12.223 3.005-.725 0-1.477-.019-2.258-.06-4.446-.232-7.5-2.62-8.47-6.584-2.33-.38-4.757-1.546-7.062-3.398-3.587-2.884-4.74-7.114-3.159-11.603 1.645-4.67 5.911-8.33 9.714-8.33.615 0 1.204.09 1.766.27.048-1.792.428-4.796 2.269-6.82 2.127-2.347 5.559-2.717 10.077-1.019 1.714.643 3.209 1.453 4.453 2.412 2.146-2.103 4.824-3.295 7.461-3.295 1.975 0 3.895.638 5.707 1.893 4.049 2.805 6.425 6.984 6.484 11.324 2.4.16 4.639 1.361 6.507 3.497 2.515 2.878 2.913 6.64 1.119 10.59-2.754 6.07-10.215 11.393-15.967 11.393Zm-5.059-4.407c.393.489.845.952 1.349 1.386.966.83 2.215 1.252 3.71 1.252 5.054 0 11.896-4.937 14.357-10.355 1.054-2.32 1.762-5.713-.842-8.693-1.567-1.794-3.342-2.767-5.279-2.896-.56 4.147-3.276 7.193-6.82 7.528a5.38 5.38 0 0 1-.508.024h-.002c-1.84 0-2.521-1.093-2.544-2.116-.055-2.414 3.677-6.494 8.21-7.135-.038-3.782-2.138-7.452-5.725-9.937-1.51-1.047-3.091-1.578-4.698-1.578-2.138 0-4.336.977-6.134 2.703 2.811 2.88 3.267 6.33 2.412 8.603-.607 1.605-1.852 2.604-3.255 2.604h-.002c-.885 0-1.782-.394-2.595-1.139-2.56-2.346-1.561-6.71.933-9.92-1.085-.819-2.392-1.517-3.895-2.082-3.776-1.417-6.512-1.248-8.145.551-2.193 2.416-1.787 6.917-1.782 6.962a.886.886 0 0 1-1.368.822 3.912 3.912 0 0 0-2.195-.654c-3.048 0-6.657 3.208-8.045 7.15-.774 2.197-1.465 6.37 2.598 9.635 1.874 1.506 3.811 2.502 5.664 2.92-.219-3.002.646-6.287 2.231-8.184.782-.938 1.681-1.434 2.598-1.434.661 0 1.643.266 2.566 1.537 1.588 2.186 1.902 4.609.864 6.645-1.066 2.091-3.335 3.363-6.098 3.428.702 2.209 2.461 4.462 6.691 4.683 5.972.299 10.525-.62 13.389-2.638-1.764-3.105-1.532-6.446-.446-8.496.645-1.218 1.561-1.916 2.509-1.916.654 0 1.84.336 2.442 2.588.816 3.051.033 5.98-2.145 8.152Zm-.295-8.97c-.166 0-.568.264-.945.974-.819 1.545-1 4.053.247 6.477 1.541-1.695 2.05-3.853 1.429-6.176-.278-1.04-.628-1.275-.731-1.275Zm-22.509 4.83c2.254.07 4.084-.887 4.889-2.463.724-1.424.463-3.174-.719-4.802-.268-.37-.683-.808-1.135-.808-.37 0-.811.283-1.241.798-1.161 1.39-2.122 4.332-1.794 7.274Zm34.292-15.05c-3.635.697-6.327 3.973-6.298 5.278.004.145.01.389.776.389h.002c.107 0 .221-.006.343-.017 2.604-.245 4.633-2.511 5.177-5.65Zm-17.595-9.305c-2.139 2.78-2.642 5.994-1.063 7.44 1.21 1.107 2.426.735 3-.783.646-1.714.258-4.354-1.937-6.657ZM309.581 203.708c-.651 0-1.268 0-2.971-6.784-5.746-1.106-6.233-1.76-6.421-2.011-.164-.221-.233-.624-.159-.888.103-.37.347-1.227 6.913-3.874 2.361-6.151 3.164-6.151 3.699-6.151.278 0 .662.199.828.424.425.568.807 2.042 1.387 4.399.182.734.399 1.62.525 2.015.346.154 1.101.425 1.728.65 3.385 1.213 4.258 1.625 4.415 2.437.061.306-.095.75-.328.959-.686.616-3.945 1.827-5.659 2.437-2.782 6.329-3.38 6.358-3.908 6.386l-.049.001Zm-7.132-9.558c1.151.33 3.231.802 5.046 1.141.34.062.613.32.696.657.465 1.881 1.071 4.024 1.508 5.258.638-1.149 1.595-3.166 2.372-4.947a.894.894 0 0 1 .517-.481c1.55-.544 3.298-1.214 4.397-1.693-.767-.324-1.801-.693-2.471-.934-1.93-.691-2.293-.841-2.541-1.176-.22-.294-.353-.779-.833-2.73-.18-.726-.453-1.837-.696-2.675-.572 1.095-1.365 2.939-1.984 4.57a.893.893 0 0 1-.5.51c-2.014.804-4.3 1.827-5.511 2.5ZM60.569 92.659h-.006a.884.884 0 0 1-.88-.89l.089-14.89c.003-.487.399-.879.884-.879h.006c.489.003.883.4.88.89l-.089 14.889a.885.885 0 0 1-.884.88Z" fill="#fff"/><path d="M54.565 89.412a.885.885 0 0 1-.506-1.61l12.295-8.573a.886.886 0 0 1 1.013 1.452L55.07 89.253a.882.882 0 0 1-.506.159Z" fill="#fff"/><path d="M65.364 90.035a.885.885 0 0 1-.642-.276l-9.297-9.825a.886.886 0 0 1 1.286-1.216l9.296 9.825a.886.886 0 0 1-.643 1.492Z" fill="#fff"/><path d="M52.885 85.056a.884.884 0 0 1-.009-1.77L67.2 83.15c.466.023.888.39.893.877a.884.884 0 0 1-.876.893l-14.323.136h-.008Z" fill="#fff"/><defs><linearGradient id="a" x1="182.5" y1="-6.379" x2="182.5" y2="306.017" gradientUnits="userSpaceOnUse"><stop stop-color="#6D13FF"/><stop offset=".049" stop-color="#9859FF"/><stop offset=".898" stop-color="#9859FF"/><stop offset="1" stop-color="#6D13FF"/></linearGradient></defs></svg>
